X:1
T: Phil Graham
C:Bruce Shawyer
R:Strathspey
Q:128
K:Bm
M:4/4
L:1/16
|:B6c2 d3c Bd3|A6B2 c3B Ac3|B6c2 d3c Bd3|eB3 B3A GE3|E4|
F4 F3G FD3 D4|E4 E3F EC3 C4|F4 F3G FD3 D4|GE3 E3D E8|
G6A2 Bd3 d4|dA3 A3G FD3 D4|A6B2 ce3 e4|fc3 c3B c8|d4 d3c Bc3 d4|
B4 B3A GA3 B4|1G4 G3F EF3 GE3|FB3 B3A B8:|2G4 G3F EF3 GA3|B8-B8||
